X: 515
T: Mai bianshi
L: 1/8
M: 2/4
K: Bb
c'2c' f' [I:setbarnb 1]| 
d' c'b2 | 
c'2c'2 | 
d' bc'2 | 
d' d' d' d' | 
g c'b2 | 
g c'/ c'/ b g | 
f df2 | 
g c' b g | 
g c'/ c'/ b g | 
f df2 |]

@@@ Tune index: 9389
